apps/www/public/images/logos/publicity/langchain.svg

<svg width="164" height="60" viewBox="0 0 164 60" fill="none" xmlns="http://www.w3.org/2000/svg">
<g clip-path="url(#clip0_2080_14357)">
<path d="M47.0266 24.4219C46.393 24.4219 45.7973 24.6673 45.3514 25.1132L43.5494 26.9103C43.0633 27.3951 42.8136 28.0683 42.8647 28.7584C42.8684 28.7961 42.872 28.8338 42.8757 28.8726C42.9403 29.4024 43.173 29.8799 43.5494 30.2541C43.809 30.513 44.0952 30.677 44.4425 30.7912C44.4608 30.8957 44.4705 31.0014 44.4705 31.1071C44.4705 31.5835 44.2853 32.0306 43.949 32.3659L43.8382 32.4765C43.2363 32.2711 42.7343 31.9711 42.2811 31.519C41.6793 30.9188 41.2809 30.1606 41.131 29.3283L41.1103 29.2128L41.0189 29.287C40.9568 29.3368 40.8983 29.3903 40.8435 29.4449L39.0416 31.242C38.118 32.163 38.118 33.6636 39.0416 34.5846C39.5033 35.0451 40.11 35.276 40.718 35.276C41.326 35.276 41.9315 35.0451 42.3932 34.5846L44.1952 32.7876C45.1187 31.8665 45.1187 30.3672 44.1952 29.4449C43.949 29.1995 43.6555 29.0148 43.3228 28.8957C43.3046 28.7876 43.2948 28.6794 43.2948 28.5738C43.2948 28.0561 43.4995 27.5652 43.8748 27.191C44.4778 27.3963 45.0127 27.7293 45.4647 28.1801C46.0653 28.7791 46.4625 29.5361 46.6148 30.3708L46.6355 30.4862L46.7269 30.4121C46.7891 30.3623 46.8475 30.3088 46.9036 30.2529L48.7055 28.4559C49.629 27.5348 49.6302 26.0343 48.7055 25.1132C48.2584 24.6673 47.6638 24.4219 47.0291 24.4219H47.0266Z" fill="#7E7E7E"/>
<path d="M46.061 17.8496H22.4835C15.7656 17.8496 10.3 23.3004 10.3 30.0002C10.3 36.7 15.7656 42.1508 22.4835 42.1508H46.061C52.779 42.1508 58.2445 36.7 58.2445 30.0002C58.2445 23.3004 52.779 17.8496 46.061 17.8496ZM34.4319 36.8993C34.0432 36.9795 33.6058 36.9941 33.3086 36.6843C33.1989 36.9357 32.943 36.8033 32.7457 36.7705C32.7274 36.8215 32.7116 36.8665 32.6945 36.9175C32.0378 36.9613 31.5456 36.293 31.2325 35.7887C30.6111 35.4534 29.9057 35.2493 29.2709 34.8981C29.2344 35.4765 29.3611 36.1934 28.8092 36.5664C28.7812 37.6782 30.4954 36.6976 30.6525 37.5263C30.5307 37.5396 30.3955 37.5068 30.298 37.6004C29.8509 38.0342 29.338 37.2723 28.8226 37.587C28.1306 37.9345 28.0611 38.2188 27.2046 38.2905C27.1571 38.2188 27.1766 38.1714 27.2168 38.1277C27.458 37.8483 27.4751 37.519 27.8869 37.3999C27.4629 37.3331 27.1084 37.5664 26.7514 37.7511C26.2872 37.9406 26.2909 37.3233 25.5769 37.7838C25.4977 37.7195 25.5355 37.6611 25.5806 37.6113C25.7621 37.3902 26.0009 37.3574 26.2702 37.3695C24.9458 36.6332 24.322 38.2699 23.7104 37.4558C23.5264 37.5044 23.457 37.6696 23.3412 37.7863C23.2414 37.677 23.3169 37.5445 23.3218 37.4157C23.2024 37.3598 23.0513 37.3331 23.0866 37.1423C22.8527 37.0633 22.6895 37.2018 22.5152 37.3331C22.358 37.2116 22.6212 37.0342 22.6699 36.9078C22.8101 36.6648 23.1292 36.858 23.2913 36.683C23.7518 36.4218 24.3939 36.8458 24.9202 36.7742C25.3259 36.8252 25.8279 36.4096 25.6244 35.9953C25.1907 35.4425 25.2674 34.7195 25.2577 34.0585C25.2041 33.6733 24.2769 33.1824 24.0089 32.7669C23.6775 32.3926 23.4192 31.9589 23.1609 31.5324C22.2289 29.7329 22.5225 27.4206 21.348 25.7499C20.8168 26.0428 20.1248 25.9042 19.6667 25.5117C19.4194 25.7365 19.4084 26.0306 19.3889 26.3429C18.7956 25.7512 18.8699 24.6333 19.3438 23.9747C19.5376 23.7147 19.7691 23.5008 20.0273 23.3125C20.0858 23.27 20.1053 23.2287 20.1041 23.1631C20.5732 21.0586 23.7726 21.4644 24.7838 22.9553C25.5172 23.8727 25.739 25.0865 26.5711 25.9383C27.6907 27.1606 28.9664 28.2371 29.9995 29.5385C30.9766 30.728 31.6747 32.1229 32.2839 33.5288C32.5325 33.9953 32.5349 34.5676 32.9029 34.9661C33.0844 35.2067 33.9713 35.8616 33.7788 36.0937C33.8897 36.3343 34.7182 36.666 34.4306 36.8993H34.4319ZM49.9706 29.7207L48.1688 31.5178C47.6887 31.9966 47.0954 32.3538 46.4521 32.5494L46.4192 32.5591L46.407 32.5907C46.1974 33.1423 45.8795 33.6344 45.4603 34.0512L43.6584 35.8483C42.8726 36.632 41.8273 37.0633 40.7136 37.0633C39.6001 37.0633 38.5547 36.632 37.7689 35.8483C36.1449 34.2286 36.1449 31.5943 37.7689 29.9747L39.5708 28.1776C40.0533 27.6965 40.6308 27.3502 41.2851 27.1497L41.318 27.1399L41.3302 27.1084C41.5397 26.5567 41.8589 26.0634 42.2793 25.643L44.0812 23.8459C44.867 23.0622 45.9124 22.6309 47.0259 22.6309C48.1395 22.6309 49.1848 23.0622 49.9706 23.8459C50.7565 24.6296 51.189 25.6722 51.189 26.7827C51.189 27.8933 50.7565 28.937 49.9706 29.7195V29.7207Z" fill="#7E7E7E"/>
<path d="M27.1022 34.7243C26.9438 35.3392 26.8926 36.3853 26.091 36.4157C26.0252 36.7705 26.3371 36.9041 26.6222 36.7899C26.9036 36.6611 27.0376 36.892 27.1327 37.1216C27.5676 37.1848 28.2109 36.977 28.2353 36.4631C27.5859 36.0901 27.3849 35.3805 27.1034 34.7231L27.1022 34.7243Z" fill="#7E7E7E"/>
<path d="M69.5322 24.2185H67.3919V37.2019H76.5721V35.1337H69.5322V24.2185Z" fill="#7E7E7E"/>
<path d="M87.3314 37.2019H89.4718V37.1788H89.4999L89.5041 37.0835C89.5046 37.0556 89.5124 36.7958 89.473 36.3954V31.5633C89.473 29.7454 90.7984 28.9178 92.0302 28.9178C93.355 28.9178 93.9998 29.6318 93.9998 31.1014V37.2019H96.1402V30.8166C96.1402 28.3914 94.5992 26.8843 92.1197 26.8843C91.0659 26.8843 90.1256 27.1836 89.387 27.7523L89.3673 27.0623H87.3344V37.2019H87.3314Z" fill="#7E7E7E"/>
<path d="M104.851 27.8072C104.107 27.2028 103.151 26.8843 102.072 26.8843C99.1857 26.8843 97.3928 28.8745 97.3928 32.0782C97.3928 35.282 99.1857 37.2904 102.072 37.2904C103.09 37.2904 103.999 37.0133 104.714 36.4859C104.653 38.0575 103.668 38.9909 102.055 38.9909C100.697 38.9909 99.9296 38.5589 99.772 37.7071L99.7523 37.6013L97.6728 38.2355L97.6913 38.3211C98.0424 40.0139 99.6264 41.0244 101.93 41.0244C103.493 41.0244 104.719 40.5991 105.575 39.7589C106.438 38.912 106.875 37.6917 106.875 36.1327V27.0623H104.895L104.852 27.8072H104.851ZM104.717 32.1677C104.717 34.1021 103.775 35.2579 102.196 35.2579C100.503 35.2579 99.5332 34.0992 99.5332 32.0792C99.5332 30.0591 100.504 28.9178 102.196 28.9178C103.737 28.9178 104.702 30.0678 104.717 31.9185V32.1677Z" fill="#7E7E7E"/>
<path d="M117.421 33.0848C116.977 34.5197 115.838 35.3108 114.214 35.3108C111.892 35.3108 110.448 33.5477 110.448 30.7097C110.448 27.8716 111.905 26.1086 114.25 26.1086C115.873 26.1086 116.808 26.7447 117.283 28.17L117.505 28.8369L119.526 27.888L119.337 27.3539C118.567 25.1856 116.79 24.0404 114.197 24.0404C112.435 24.0404 110.939 24.6765 109.871 25.8795C108.814 27.0709 108.255 28.7406 108.255 30.7106C108.255 34.7622 110.593 37.3808 114.214 37.3808C116.765 37.3808 118.741 36.046 119.5 33.8095L119.693 33.2378L117.617 32.4486L117.419 33.0857L117.421 33.0848Z" fill="#7E7E7E"/>
<path d="M125.414 26.8843C124.392 26.8843 123.482 27.1644 122.768 27.6966V22.9742H120.628V37.2028H122.768V31.5644C122.768 29.7349 124.093 28.9015 125.326 28.9015C126.65 28.9015 127.295 29.6155 127.295 31.085V37.2039H129.436V30.8002C129.436 28.4222 127.858 26.8863 125.415 26.8863L125.414 26.8843Z" fill="#7E7E7E"/>
<path d="M141.946 22.6682C141.151 22.6682 140.574 23.2456 140.574 24.0405C140.574 24.8354 141.151 25.4129 141.946 25.4129C142.741 25.4129 143.318 24.8354 143.318 24.0405C143.318 23.2456 142.741 22.6682 141.946 22.6682Z" fill="#7E7E7E"/>
<path d="M149.568 26.8843C148.514 26.8843 147.574 27.1836 146.836 27.7523L146.816 27.0623H144.783V37.2019H146.924V31.5633C146.924 29.7454 148.249 28.9178 149.481 28.9178C150.806 28.9178 151.45 29.6318 151.45 31.1014V37.2019H153.591V30.8166C153.591 28.3914 152.05 26.8843 149.57 26.8843H149.568Z" fill="#7E7E7E"/>
<path d="M142.986 27.0623H140.856V32.0889C140.265 31.5922 139.569 31.2169 138.783 30.9715V30.4605C138.783 28.2211 137.313 26.8843 134.85 26.8843C132.85 26.8843 131.353 27.8236 130.744 29.4606L130.58 29.9023L132.295 31.1669L132.59 30.3999C132.978 29.3884 133.697 28.9169 134.85 28.9169C136.004 28.9169 136.643 29.4721 136.643 30.5663V30.6232C136.574 30.6202 136.505 30.6183 136.435 30.6174C134.144 30.5808 132.472 31.1169 131.467 32.2081C130.438 33.3245 130.528 34.5785 130.542 34.717L130.551 34.8133H130.561C130.721 36.3752 132.085 37.378 134.068 37.378C135.16 37.378 136.169 37.0739 136.932 36.5186L136.94 37.2009H138.783V34.029L138.743 34.0001C138.483 33.8095 138.028 33.5632 137.345 33.4766C137.13 33.4496 136.926 33.4361 136.737 33.44H136.641V33.7316C136.641 34.4024 135.871 35.3465 134.156 35.3465C132.89 35.3465 132.701 34.8142 132.701 34.4967V34.464C132.711 34.3216 132.771 33.9731 133.085 33.6488C133.485 33.236 134.384 32.7529 136.4 32.7837C137.86 32.8067 138.98 33.2148 139.73 33.9972C140.65 34.9577 140.823 36.2723 140.855 36.7871V37.2019H142.984V27.0623H142.986Z" fill="#7E7E7E"/>
<path d="M81.7974 26.8401C79.7967 26.8401 78.3005 27.7793 77.6909 29.4163L77.5267 29.8581L79.2426 31.1226L79.537 30.3556C79.9251 29.3441 80.6439 28.8726 81.7974 28.8726C82.9515 28.8726 83.5897 29.4279 83.5897 30.5221V30.7791L81.3854 31.1679C78.8014 31.625 77.4909 32.7298 77.4909 34.4505C77.4909 36.1712 78.8737 37.3338 81.0141 37.3338C82.1067 37.3338 83.1151 37.0296 83.8781 36.4743L83.887 37.1567H85.7289V30.4162C85.7289 28.1768 84.2596 26.8401 81.7974 26.8401ZM83.5897 32.7847V33.6883C83.5897 34.3591 82.8183 35.3032 81.1036 35.3032C79.8379 35.3032 79.6498 34.771 79.6498 34.4534C79.6498 34.1714 79.6498 33.5112 81.8917 33.0955L83.5897 32.7856V32.7847Z" fill="#7E7E7E"/>
</g>
<defs>
<clipPath id="clip0_2080_14357">
<rect width="143.291" height="24.4788" fill="white" transform="translate(10.3 17.7606)"/>
</clipPath>
</defs>
</svg>

<svg xmlns="http://www.w3.org/2000/svg" width="164" height="60" fill="none" viewBox="0 0 164 60"><g fill="#7e7e7e" clip-path="url(#a)"><path d="M47.027 24.422c-.634 0-1.23.245-1.676.691L43.55 26.91a2.36 2.36 0 0 0-.673 1.963c.064.53.297 1.007.673 1.381.26.259.546.423.894.537q.027.157.028.316c0 .477-.186.924-.522 1.259l-.11.11a3.9 3.9 0 0 1-1.558-.957c-.602-.6-1-1.358-1.15-2.19l-.02-.116-.092.074q-.093.075-.175.158l-1.802 1.797a2.363 2.363 0 0 0 1.676 4.034c.608 0 1.213-.23 1.675-.691l1.802-1.797a2.363 2.363 0 0 0 0-3.343 2.34 2.34 0 0 0-.872-.55 1.942 1.942 0 0 1 .552-1.705 4.1 4.1 0 0 1 1.59.99c.6.6.997 1.356 1.15 2.19l.02.116.092-.074q.092-.075.177-.16l1.801-1.796a2.362 2.362 0 0 0-1.676-4.034z"/><path d="M46.061 17.85H22.484C15.766 17.85 10.3 23.3 10.3 30s5.466 12.15 12.183 12.15h23.578c6.718 0 12.184-5.45 12.184-12.15S52.779 17.85 46.06 17.85M34.431 36.9c-.388.08-.825.094-1.122-.216-.11.252-.366.12-.563.087l-.052.146c-.656.044-1.148-.624-1.462-1.128-.62-.336-1.326-.54-1.961-.89-.037.578.09 1.294-.462 1.667-.028 1.112 1.686.132 1.843.96-.121.014-.257-.02-.354.074-.447.434-.96-.328-1.475-.013-.692.347-.762.632-1.618.703-.048-.071-.028-.119.012-.162.241-.28.258-.609.67-.728-.424-.067-.779.166-1.136.351-.464.19-.46-.428-1.174.033-.08-.065-.042-.123.004-.173.181-.22.42-.254.69-.241-1.325-.737-1.949.9-2.56.086-.185.048-.254.214-.37.33-.1-.109-.024-.242-.02-.37-.119-.056-.27-.083-.234-.274-.234-.079-.398.06-.572.191-.157-.121.106-.299.155-.425.14-.243.46-.05.621-.225.46-.261 1.103.163 1.63.091.405.051.907-.364.703-.779-.433-.552-.357-1.276-.366-1.936-.054-.386-.981-.877-1.25-1.292-.33-.374-.589-.808-.847-1.235-.932-1.8-.639-4.111-1.813-5.782-.531.293-1.223.154-1.681-.238-.248.224-.259.519-.278.83-.593-.59-.52-1.709-.045-2.367.194-.26.425-.474.683-.663.059-.042.078-.083.077-.149.47-2.104 3.669-1.699 4.68-.208.733.918.955 2.132 1.787 2.983 1.12 1.223 2.395 2.3 3.428 3.6.978 1.19 1.676 2.585 2.285 3.99.248.467.25 1.04.619 1.438.181.24 1.068.896.876 1.128.11.24.94.572.652.805m15.54-7.18-1.802 1.798a4.15 4.15 0 0 1-1.717 1.031l-.033.01-.012.032a4.1 4.1 0 0 1-.947 1.46l-1.802 1.797a4.14 4.14 0 0 1-2.944 1.215 4.15 4.15 0 0 1-2.945-7.089l1.802-1.796a4.1 4.1 0 0 1 1.714-1.028l.033-.01.012-.032c.21-.551.529-1.045.95-1.465l1.801-1.797a4.14 4.14 0 0 1 2.945-1.215c1.113 0 2.159.431 2.945 1.215a4.12 4.12 0 0 1 1.218 2.937c0 1.11-.432 2.154-1.218 2.936z"/><path d="M27.102 34.724c-.158.615-.21 1.661-1.011 1.692-.066.355.246.488.531.374.282-.129.416.102.51.332.436.063 1.079-.145 1.103-.659-.65-.373-.85-1.083-1.132-1.74zM69.532 24.219h-2.14v12.983h9.18v-2.068h-7.04zM87.331 37.202h2.14v-.023h.029l.004-.096c0-.027.008-.287-.031-.688v-4.832c0-1.818 1.325-2.645 2.557-2.645 1.325 0 1.97.714 1.97 2.183v6.1h2.14v-6.384c0-2.426-1.54-3.933-4.02-3.933-1.054 0-1.994.3-2.733.868l-.02-.69h-2.033v10.14zM104.851 27.807c-.744-.604-1.7-.923-2.779-.923-2.886 0-4.68 1.99-4.68 5.194s1.794 5.212 4.68 5.212c1.018 0 1.927-.277 2.642-.804-.061 1.572-1.046 2.505-2.659 2.505-1.358 0-2.125-.432-2.283-1.284l-.02-.106-2.08.635.02.085c.35 1.693 1.934 2.703 4.238 2.703 1.563 0 2.789-.425 3.645-1.265.863-.847 1.3-2.067 1.3-3.626v-9.07h-1.98l-.043.744zm-.134 4.36c0 1.935-.942 3.09-2.521 3.09-1.693 0-2.663-1.158-2.663-3.178s.971-3.161 2.663-3.161c1.541 0 2.506 1.15 2.521 3zM117.421 33.085c-.444 1.435-1.583 2.226-3.207 2.226-2.322 0-3.766-1.763-3.766-4.601s1.457-4.601 3.802-4.601c1.623 0 2.558.636 3.033 2.061l.222.667 2.021-.949-.189-.534c-.77-2.168-2.547-3.314-5.14-3.314-1.762 0-3.258.637-4.326 1.84-1.057 1.19-1.616 2.86-1.616 4.83 0 4.052 2.338 6.67 5.959 6.67 2.551 0 4.527-1.334 5.286-3.57l.193-.572-2.076-.79-.198.638zM125.414 26.884c-1.022 0-1.932.28-2.646.813v-4.723h-2.14v14.229h2.14v-5.639c0-1.83 1.325-2.663 2.558-2.663 1.324 0 1.969.715 1.969 2.184v6.119h2.141V30.8c0-2.378-1.578-3.914-4.021-3.914zM141.946 22.668c-.795 0-1.372.578-1.372 1.373 0 .794.577 1.372 1.372 1.372s1.372-.578 1.372-1.372-.577-1.373-1.372-1.373M149.568 26.884c-1.054 0-1.994.3-2.732.868l-.02-.69h-2.033v10.14h2.141v-5.639c0-1.818 1.325-2.645 2.557-2.645 1.325 0 1.969.714 1.969 2.183v6.1h2.141v-6.384c0-2.426-1.541-3.933-4.021-3.933zM142.986 27.062h-2.13v5.027a6 6 0 0 0-2.073-1.117v-.512c0-2.239-1.47-3.576-3.933-3.576-2 0-3.497.94-4.106 2.577l-.164.441 1.715 1.265.295-.767c.388-1.012 1.107-1.483 2.26-1.483 1.154 0 1.793.555 1.793 1.65v.056l-.208-.006c-2.291-.036-3.963.5-4.968 1.591-1.029 1.117-.939 2.37-.925 2.509l.009.096h.01c.16 1.562 1.524 2.565 3.507 2.565 1.092 0 2.101-.304 2.864-.86l.008.683h1.843v-3.172l-.04-.029c-.26-.19-.715-.437-1.398-.523a4 4 0 0 0-.608-.037h-.096v.292c0 .67-.77 1.614-2.485 1.614-1.266 0-1.455-.532-1.455-.85v-.032c.01-.142.07-.49.384-.815.4-.413 1.299-.896 3.315-.865 1.46.023 2.58.43 3.33 1.213.92.96 1.093 2.275 1.125 2.79v.415h2.129v-10.14zM81.797 26.84c-2 0-3.496.94-4.106 2.576l-.164.442 1.716 1.265.294-.767c.388-1.012 1.107-1.483 2.26-1.483 1.154 0 1.793.555 1.793 1.65v.256l-2.205.389c-2.584.457-3.894 1.562-3.894 3.282 0 1.721 1.383 2.884 3.523 2.884 1.093 0 2.101-.304 2.864-.86l.009.683h1.842v-6.74c0-2.24-1.47-3.577-3.932-3.577m1.793 5.945v.903c0 .671-.772 1.615-2.486 1.615-1.266 0-1.454-.532-1.454-.85 0-.282 0-.942 2.242-1.358z"/></g><defs><clipPath id="a"><path fill="#fff" d="M10.3 17.76h143.291v24.48H10.3z"/></clipPath></defs></svg>
